src/pos-icons/mouse-off.svg

<svg height="24" viewBox="0 0 24 24" width="24" xmlns="http://www.w3.org/2000/svg"><path d="m2 5.27 1.28-1.27 16.72 16.72-1.27 1.28-1.23-1.21c-1.42 1.37-3.36 2.21-5.5 2.21a8 8 0 0 1 -8-8v-4h3.73l-2-2h-1.73c0-.54.05-1.07.15-1.58zm9-4.2v7.93h-.18l-5.03-5.04c1.26-1.56 3.11-2.63 5.21-2.89m9 9.93v4c0 .95-.17 1.86-.47 2.71l-6.71-6.71zm-7-9.93c3.94.49 7 3.85 7 7.93h-7z"/></svg>

<?xml version="1.0" encoding="UTF-8"?><!DOCTYPE svg PUBLIC "-//W3C//DTD SVG 1.1//EN" "http://www.w3.org/Graphics/SVG/1.1/DTD/svg11.dtd"><svg xmlns="http://www.w3.org/2000/svg" xmlns:xlink="http://www.w3.org/1999/xlink" version="1.1" id="mdi-mouse-off" width="24" height="24" viewBox="0 0 24 24"><path d="M2,5.27L3.28,4L20,20.72L18.73,22L17.5,20.79C16.08,22.16 14.14,23 12,23A8,8 0 0,1 4,15V11H7.73L5.73,9H4C4,8.46 4.05,7.93 4.15,7.42L2,5.27M11,1.07V9H10.82L5.79,3.96C7.05,2.4 8.9,1.33 11,1.07M20,11V15C20,15.95 19.83,16.86 19.53,17.71L12.82,11H20M13,1.07C16.94,1.56 20,4.92 20,9H13V1.07Z" /></svg>
